X:1
T:Title
%%score { ( 1 3 ) | ( 2 4 ) }
L:1/8
M:6/8
K:Eb
V:1 treble nm="Grand Piano"
V:3 treble 
V:2 bass 
V:4 bass 
V:1
 z3 z2[Q:1/4=100] B | BGE DFc | z Ge B2 B | B6 | B6 | BGE DFc | z Ge B2 G | FBB AFc | B3- B2 [DB] | %9
 [DB][DA][DG] [DF][DG][DA] | A3 G2 G | [EG][Ec][Ec] c=Bd | [CEc]3- [CEc]2 B | BGE DFc | z Ge B2 B | %15
 BcB [DB][DA][DF] |[M:5/8] E-E- E3 |[M:1/8] B |[M:3/4] B6 | e6 | [EGB][EGc] [EGB][DAB] [DAc][DAB] | %21
 B6 | B6 | e6 | eB G[DB] [DA][DF] |[M:5/8] E-E- E3 |] %26
V:2
 z3 z2 B, | B,G,E, D,F,C | B,3 z3 | .G,3 z3 | E,-[E,-G,][E,C] [E,B,]2 B, | B,G,E, D,F,C | B,3 z3 | %7
 [F,B,D][F,DF][F,DF] [F,CF][F,=A,][K:treble][F,EF] | [B,DF]3- [B,DF]2[K:bass] [B,,B,] | %9
 [B,,B,][B,,B,][B,,B,] [B,,B,][B,,B,][B,,B,] | [E,CE]3 [E,B,E]2 [E,B,E] | %11
 [C,C][C,C][C,C][K:treble] [G,DF][G,DF][G,=B,F] | C,3- C,2 B, | B,G,E, D,F,C | B,3 z3 | %15
 [E,G,E][E,A,E][E,G,E] [B,,B,][B,,B,][B,,A,] |[M:5/8] [E,G,]-[E,G,]- [E,G,]3 |[M:1/8] [E,G,E] | %18
[M:3/4] B,,-[B,,-C] [B,,-B,] [B,,A,]2 [B,,A,] | [G,E]D C B,2 E, | E,E, E,F, F,B,, | %21
 z D C B,2 [E,G,E] | F,C B, A,2 [B,,A,] | [G,E]D C B,2 [E,G,E] | %24
 [E,G,E][E,G,E] [E,B,E][B,,B,] [B,,B,][B,,A,] |[M:5/8] [E,G,]-[E,G,]- [E,G,]3 |] %26
V:3
 x6 | x6 | .B3 z3 | EAG F2 [FB] | FEA G2 B | x6 | .B3 z3 | x6 | x6 | x6 | x6 | x6 | x6 | x6 | %14
 .B3 z3 | x6 |[M:5/8] x5 |[M:1/8] x |[M:3/4] DA G F2 [FB] | z B A G2 [EGB] | x6 | [EG]F A G2 B | %22
 DA G F2 [FB] | z B A G2 B | x6 |[M:5/8] x5 |] %26
V:4
 x6 | x6 | z2 [G,E] [E,G,E]2 [E,G,E] | B,,-[B,,-C][B,,-B,] [B,,A,]2 [B,,A,] | .A,3 z3 | x6 | %6
 z2 [G,E] [E,G,E]2 [E,B,E] | x5[K:treble] x | x5[K:bass] x | x6 | x6 | x3[K:treble] x3 | x6 | x6 | %14
 z2 [G,E] [E,G,E]2 [E,G,E] | x6 |[M:5/8] x5 |[M:1/8] x |[M:3/4] .F,2 z2 z2 | E,6 | x6 | E,6 | %22
 B,,6 | E,6 | x6 |[M:5/8] x5 |] %26

